!!!COM:	Japart, Jean
!!!CDT:	~1450//-~1507//
!!!OTL:	Il est de bonne heure n&eacute; / L'homme arm&eacute;
!!!AGN:	Song; Chanson
!!!SCT:	Jap3009
!!!SCA:	Jap3009
!!!voices:	4
**kern	**kern	**kern	**kern
*staff4	*staff3	*staff2	*staff1
*Ivox	*Ivox	*Ivox	*Ivox
*I"Bassus	*I"Tenor	*I"Altus	*I"Discantus
*I'B	*I'T	*I'A	*I'D
*clefF4	*clefGv2	*clefGv2	*clefG2
*k[b-]	*k[b-]	*k[b-]	*k[b-]
*M2/1	*M2/1	*M2/1	*M2/1
*met(C|)	*met(C|)	*met(C|)	*met(C|)
=1-	=1-	=1-	=1-
1G	0r	1d	1g
1G	.	1e	1g
=2	=2	=2	=2
1F	0r	2f	1a
.	.	2.d	.
1F	.	.	1a
.	.	4c	.
.	.	2A	.
=3	=3	=3	=3
1G	1G	2G	1b-
.	.	1B-	.
1G	1G	.	1b-
.	.	4A	.
.	.	4G	.
=4	=4	=4	=4
0D	1A	1F	1a
.	1A	1f	1r
=5	=5	=5	=5
3%4GV	1B-	1d	1g
.	1B-	1e	1g
3%2GZ	.	.	.
=6	=6	=6	=6
3%4FV	1A	0f	1a
.	1r	.	1a
3%2FZ	.	.	.
=7	=7	=7	=7
3%4GV	1G	1d	1b-
.	1G	2r	1b-
3%2GZ	.	.	.
.	.	[2d	.
=8	=8	=8	=8
0D	1A	4d]	0a
.	.	4e	.
.	.	2.f	.
.	1A	.	.
.	.	4g	.
.	.	[2a	.
=9	=9	=9	=9
1r	1B-	2a]	0r
.	.	4g	.
.	.	4f	.
1G	1B-	4g	.
.	.	4f	.
.	.	4e	.
.	.	4d	.
=10	=10	=10	=10
1.A	0A	2c	0r
.	.	1f	.
2G	.	2e	.
=11	=11	=11	=11
1F	0r	2f	1cc
.	.	4e	.
.	.	4d	.
1E	.	1c	1cc
=12	=12	=12	=12
2D	0r	1d	1b-
1G	.	.	.
.	.	1r	1g
4F	.	.	.
4E	.	.	.
=13	=13	=13	=13
2F	1c	0r	0a
1G	.	.	.
.	1c	.	.
2F#i	.	.	.
=14	=14	=14	=14
0G	1B-	1d	0g
.	1G	2e	.
.	.	[2g	.
=15	=15	=15	=15
0r	1A	2g]	0r
.	.	4f#i	.
.	.	4e	.
.	1A	1f#i	.
=16	=16	=16	=16
0r	0G	1g	0r
.	.	2r	.
.	.	[2G	.
=17	=17	=17	=17
3%4GGV	0r	2G]	1g
.	.	2A	.
.	.	1B-	1g
3%2GGZ	.	.	.
=18	=18	=18	=18
3%4CV	0r	1c	0a
.	.	[1A	.
3%2CZ	.	.	.
=19	=19	=19	=19
0BB-	1G	2A]	0b-
.	.	2G	.
.	1G	[1G	.
=20	=20	=20	=20
0AA	0A	2G]	0cc
.	.	4F#i	.
.	.	4E	.
.	.	1F#i	.
=21	=21	=21	=21
1GG	0B-	1G	2.b-
.	.	.	4a
1r	.	1r	2f
.	.	.	[2g
=22	=22	=22	=22
0r	1c	0r	4g]
.	.	.	4f
.	.	.	2.a
.	1c	.	.
.	.	.	4g
.	.	.	2e
=23	=23	=23	=23
1r	1B-	0r	2d
.	.	.	1g
2D	1A	.	.
2D	.	.	2f#i
=24	=24	=24	=24
1GG	2.G	0r	1g
.	4A	.	.
2D	2B-	.	1r
2D	[2A	.	.
=25	=25	=25	=25
2D	4A]	0r	0r
.	4D	.	.
1C	2.A	.	.
.	4G	.	.
2BB-	[2G	.	.
=26	=26	=26	=26
1AA	2G]	1c	0r
.	2F#i	.	.
1GG	1G	1B-	.
=27	=27	=27	=27
0r	0r	0e-	1g
.	.	.	1g
=28	=28	=28	=28
0r	0r	1d	1a
.	.	1c	[1cc
=29	=29	=29	=29
0r	1G	0d	2cc]
.	.	.	4bni
.	.	.	4a
.	1G	.	1bni
=30	=30	=30	=30
0r	1A	0c	2.cc
.	.	.	4b-
.	[1c	.	2g
.	.	.	[2a
=31	=31	=31	=31
1r	1c]	1r	4a]
.	.	.	4g
.	.	.	4f
.	.	.	4e
1G	1Bni	1g	1d
=32	=32	=32	=32
1A	0c	1e	2r
.	.	.	1c
1F	.	1f	.
.	.	.	4B-
.	.	.	4A
=33	=33	=33	=33
1G	1B-	1d	2G
.	.	.	2d
2r	1A	2c	2e
2D	.	2d	2f
=34	=34	=34	=34
2E	1.G	2.B-	2g
2.G	.	.	2.b-
.	.	4c	.
.	.	4d	.
4F	.	4e	4a
2D	2F	2f	[2a
=35	=35	=35	=35
2E	2G	2e	4a]
.	.	.	4g
2G	2B-	1d	1g
1D	1A	.	.
.	.	2d	2f#i
=36	=36	=36	=36
*M3/1	*M3/1	*M3/1	*M3/1
*met(O/3)	*met(O/3)	*met(O/3)	*met(O/3)
*	*met()	*	*met()
*	*rscale:2/3	*	*rscale:2/3
0GG	[0.G	1.B-	0.g
.	.	2c	.
1GG	.	1d	.
*	*	*	*rscale:1
=37	=37	=37	=37
*	*	*	*M3/1
*met(O/3)	*met(O/3)	*met(O/3)	*met(O/3)
0C	0.G]	1.e	0.r
.	.	2d	.
1C	.	2c	.
.	.	4B-	.
.	.	4A	.
=38	=38	=38	=38
0BB-	0.r	0G	0g
[1C	.	1E	1g
=39	=39	=39	=39
1C]	0.r	1E	0a
0AA	.	0F#i	.
.	.	.	1a
*	*rscale:1	*	*
=40	=40	=40	=40
*	*M3/1	*	*
*met(O/3)	*met(O/3)	*met(O/3)	*met(O/3)
0GG	0G	1G	0b-
.	.	1.d	.
1r	1G	.	1b-
.	.	2e	.
=41	=41	=41	=41
0D	0A	1.f	0a
.	.	2e	.
1D	1A	1f	1r
=42	=42	=42	=42
0GG	0B-	0d	0g
1r	1B-	1d	1g
=43	=43	=43	=43
0D	0A	0d	0a
1D	1r	1r	1a
=44	=44	=44	=44
0GG	0G	0d	0b-
1r	1G	1e	1b-
=45	=45	=45	=45
1.D	0A	1.f	0.a
2E	.	2g	.
1F	1A	1a	.
=46	=46	=46	=46
0G	0B-	1.g	1r
.	.	.	1r
.	.	2f	.
1G	1B-	1d	1g
=47	=47	=47	=47
0F	0A	1.f	1a
.	.	.	1.cc
.	.	2e	.
1F	1A	1c	.
.	.	.	2b-
=48	=48	=48	=48
0F	0c	1.f	2a
.	.	.	2g
.	.	.	2a
.	.	2g	2g
1F	1c	1a	2f
.	.	.	2e
=49	=49	=49	=49
0G	0B-	1.g	1.d
.	.	2f	2e
1F	1A	1d	1f
=50	=50	=50	=50
1E	1G	1c	0g
0D	0A	0d	.
.	.	.	1f#i
=51	=51	=51	=51
0.GGl	0.Gl	0.dl	0.gl
==	==	==	==
*-	*-	*-	*-
!!!RDF**kern: l=long note in original notation
!!!RDF**kern: i=editorial accidental
!!!RDF**kern: V=start of tuplet marker
!!!RDF**kern: Z=end of tuplet marker
!!!ENC:	Chris Gage 09-11-2013
!!!END:	2013/10/12/
!!!EED:	Jesse Rodin
!!!EEV:	2013/12/19/
!!!ONB:	Translated from MusicXML and edited on 2013/12/19/ by Craig Sapp
!!muse2ps: C^@{COM}^i2I150v85,85,85,100Q8c150
